X:1
T:Air
T:Air
T:aus der Orchestersuite Nr. 3 - 2. Satz
T:J. S. Bach
C:J. S. Bach
%%score [ 1 2 3 4 ]
L:1/8
Q:1/4=62
M:4/4
K:F
V:1 treble nm="Flöte" snm="Fl."
V:2 treble nm="Oboe" snm="Ob."
V:3 treble transpose=-2 nm="Klarinette in B" snm="B Kl."
V:4 bass nm="Fagott" snm="Fgt."
V:1
"^langsam" a8- | a8- | a2 d'b{/a} gfef | e3 d c4 | c'8- | c'a(_ed) (g^f)(c'b) | b8- | %7
 bg(dc) (fe)(ba) | a6 (=bc') | f2 f/g/a- ag(gf) |1 ed d/e/f- f2 ed | c8 :|2 ed d/e/f- f2 ed | c8 |: %14
 e4- e(f/e/ d/e/c) | c'6 _e2 | d2 d'2- d'c'ba | b4- b/(a/g/f/) =ed | ^cd e2- ef g2- | ga b4 a2 | %20
 gfed (ef/g/) f2 | (e d3-) d4 | f4- fagf | d'6 c'=b | (a/g/)c' c2 (d3 e/f/) | e3 d c4 | f6 (ag) | %27
 g6 (ba) | a6 (c'b) | b8 | c4- cegb | bg a2- a3 b/c'/ | f4- fac'_e' | d'6 f2 | =eg b4 f2 | %35
 c2 ga/b/- b a2 g | (f/e/ d2) e (f2 Te)f | f8 :| %38
V:2
 f8- | f8- | f4 d4 | c8- | c2 _ed e2 c'e | d2 z2 z4 | d2 gf gabg | c2 z2 z4 | c8- | c2 =Bc d2 B2 |1 %10
 c2 c4 =B2 | G8 :|2 c2 c4 =B2 | G8 |: c8- | cd _e2- edcB | A6 ^f2 | g8- | g8- | gfed ^cd e2 | %20
 d2 d2 d2 ^c2 | A8 | G4 A4 | D2 GA =Bc d2- | d2 c4 =B2 | c8- | c2 d_e d=e f2- | f2 ed e^f g2- | %28
 g2 ^fe fg a2- | a^fgd G4- | G=EGc e2 c2- | c2 ef F4- | F2 G2 A4 | B8- | B2 d2 g4- | gfed c2 d2 | %36
 c4 (TBA B2) | A8 :| %38
V:3
[K:G] d8 | (e8 | e4) A4 | A8- | A2 ^G4 A2 | B2 z2 z4 | A2 e4 a2 | A2 z2 z4 | G6 A2 | %9
 B2 G2 E2 A2- |1 A2 B2 E2 A2 | F8 :|2 A2 B2 E2 A2 | F8 |: A8- | A2 ^GA B4- | (BcdB) ^G2 e2 | %17
 e4 E4 | (F=GAB) (cBcA) | B2 AG F2 B2 | B2 AG c2 BA | G8 | E2 e2 d^c d2 | ^c3 B A4- | A2 A2 B2 A2 | %25
 A3 G FGAF | D2 G4 e2- | e2 A4 f2- | f2 B4 ^g2 | e4- eecA | d2 c2 B2 A2 | G4 d4- | d2 c2 d4 | G8 | %34
 (AEAc) (edcB) | A2 d4 c2 | B4 A4 | D8 :| %38
V:4
 F,2 F2 E2 E,2 | D,2 D2 C2 C,2 | B,,2 B,2 =B,2 =B,,2 | C,2 C2 B,2 B,,2 | A,,2 A,2 G,2 G,,2 | %5
 ^F,,2 ^F,2 D,2 D2 | G,,2 G,2 F,2 F,,2 | E,,2 E,2 C,2 C2 | F,2 F2 E2 E,2 | D,2 D2 =B,2 G,2 |1 %10
 C2 F,2 G,2 G,,2 | (C,D,E,F, G,B,A,G,) :|2 C2 F,2 G,2 G,,2 | C,8 |: C,2 C2 B,2 B,,2 | %15
 A,,2 A,2 G,2 G,,2 | ^F,,2 ^F,2 A,2 D,2 | G,2 G2 F2 F,2 | E,2 E2 D2 D,2 | ^C,2 D,2 E,2 C,2 | %20
 D,2 B,2 G,2 A,2 | D,2 D2 C2 C,2 | =B,,2 =B,2 A,2 A,,2 | G,,2 G,2 F,2 F,,2 | E,,2 E,2 F,2 G,2 | %25
 C,2 C2 B,2 B,,2 | A,,2 A,2 B,2 B,,2 | =B,,2 =B,2 C2 C,2 | ^C,2 ^C2 D2 D,2 | G,2 G2 F2 F,2 | %30
 E,2 E2 C2 E2 | F2 F,2 _E,2 _E2 | C2 D,2 C,2 C2 | B,2 B,,2 A,,2 A,2 | G,2 G,,2 F,,2 F,2 | %35
 E,2 C,2 F,2 B,2 | C2 B,2 C2 C,2 | F,8 :| %38

